!!!OTL: 337. Auf Kaiser Josephs II. Tod (20. Febr. 1790).
!!!ARE: Europa, Mitteleuropa, Deutschland, Odenwald
!!!SCT: E0337
!!!TXL: @@DE
!!!YEM: Copyright 1995, estate of Helmut Schaffrath.
**kern	**text
*ICvox	*
*M6/8	*
*k[f#]	*
*G:	*
!LO:TX:a:t=Ruhig und ernst.	!
!LO:TX:a:t=Mel. aus dem Odenwald.	!
{8d	Jo-
=1	=1
(8d	-ſe-
8g)	-phus,
8g	der
8g	rö-
8a	-mi-
8b/	-ſche
=2	=2
4.b/	Kai-
4a}	-ſer,
{8dd	der
=3	=3
8ddL	welt-
8bJ	.
8b	-be-
8ccL	-rühm-
8aJ	.
8a	-te
=4	=4
[4.b/	Held,
8b/]	.
8r}	.
{8d	der
=5	=5
(8d	mit
8g)	.
8g	dem
8g	tür-
8a	-ki-
8b/	-ſchen
=6	=6
4.b/	Kai-
4a}	-ſer
{8dd	ge-
=7	=7
8ddL	-käm-
8bJ	.
8b	-pfet
8ccL	hat
8aJ	.
8a	im
=8	=8
[4.b/	Feld,
8b/]	.
8r}	.
{8g	thut
=9	=9
4g	ſich
8b	der
4b	Welt
8dd	em-
=10	=10
(4dd	-pfeh-
8b)	.
4cc}	-len,
{8b	ſein'_ge-
=11	=11
8bL	-treu-
8aJ	.
8a	-ſten
8aL	Ge-
8bJ	.
8cc	-ne-
=12	=12
(4cc	-rä-
8a)	.
4b}	-len,
{8d	muß
=13	=13
8dL	in
8gJ	.
8g	ſein'
8gL	früh-
8aJ	.
8b/	-ſten
=14	=14
(4.b/	Jahr'n
4a)}	.
{8dd	ſchon
=15	=15
8ddL	auf
8bJ	.
8b	die
8cc/L	To-
8aJ	.
8a	-des-
=16	=16
(4.a	-bahr.
8g)	.
8r}	.
==	==
!!!AGN: historisches Lied, Tod Kaiser Joseph II (1790)
!!!ONB: ESAC (Essen Associative Code) Database: ERK1
!!!AMT: compound duple
!!!AIN: vox
!!!EED: Helmut Schaffrath
!!!EEV: 1.0
!!!GTL: Historische Lieder
!!!URL-scan: https://rosdok.uni-rostock.de/mcrviewer/recordIdentifier/rosdok_ppn745177662/iview2/phys_0151.iview2?x=-544.0401362767932&y=-138.8078286985401&scale=0.4722427387526479&rotation=0&layout=singlePageLayout
!!!ENC: Anna Maria Matuszewska
!!!EEV: 2024/06/12
*-	*-
